X:15013
T:Over the Hills and Far Away
T:Jack the Piper
R:March
C:Trad.
O:Scotland
Z:Paul Hardy's Session Tunebook 2015 (see www.paulhardy.net). Creative Commons cc by-nc-sa licenced.
M:4/4
L:1/4
Q:1/4=140
K:D
A|:"D" d/e/ f/e/ d/e/ f/e/|"Bm" dB B>A|"D" d/e/ f/e/ d/e/ f/e/|"Em" ge e>A|
"D" d/e/ f/e/ d/e/ f/e/|"G" dBg3/2B/|"D" BA/G/Af|"Em" ge e A:|
|:"D" a/b/a/g/ f/g/f/e/|"G" dB Bf/g/|"D" a/b/a/g/ f/g/f/e/|"Em" ge ef/g/|
"D" a/b/a/g/ f/g/f/e/|"G" dB g2|"D" BA/G/ Af|"Em" ge e2:|

